www/assets/icons/monitor.svg

<svg xmlns="http://www.w3.org/2000/svg" width="24" height="24" viewBox="0 0 24 24" fill='currentColor'><path d="M20 3H4c-1.1 0-2 .9-2 2v11c0 1.1.9 2 2 2h3l-1 1v2h12v-2l-1-1h3c1.1 0 2-.9 2-2V5c0-1.1-.9-2-2-2m0 13H4V5h16z"/></svg>

<svg width="24" height="24" viewBox="0 0 24 24" xmlns="http://www.w3.org/2000/svg" fill='currentColor'><path d="M20 3H4C2.9 3 2 3.9 2 5V16C2 17.1 2.9 18 4 18H7L6 19V21H18V19L17 18H20C21.1 18 22 17.1 22 16V5C22 3.9 21.1 3 20 3ZM20 16H4V5H20V16Z"/></svg>
